X: 1632
T: John McKinnon's Grand Chain Lancers Tune
B: australian traditional tunes wiki
M:2/2
L:1/8
R: March
Q: 1/2=100
K:D
V:1 
"D"F3G||AF (3E/G/E/D|"G"G3A|B2GB|"D"A3F/A/|BA FD|"A7"E4-|Ec BA|
"D"F3G|AF (3E/G/E/D|"G"G3A|Bd cB|"D"A3F/A/|"A7"BA GE|"D"DD/D/ DD|D3B/c/|]
dA AB/c/|dA AB/c/|df fd|"A7"ce- eB/c/|"D"dA AB/c/|dA Ae/e/|"A7"ge ce|"D"d2dB/c/|
dA AB/c/|dA AB/c/|df fd|"A7"ce- eB/c/|"D"dA AB/c/|"D"dA Ae/e/|"A7"ge ce|"D"d2d2||
% abcbook-tune_id 6342d53aab82f378f26d6eda


% abcbook-boost 0
% abcbook-tablature 
% abcbook-transpose 
% abcbook-lastupdated 1665324375102
% abcbook-soundfonts 
% abcbook-repeats 1
% NFF Book 2006

